X:1
T:James Gibb editions
T:The strife is o'er, the battle done - Barnby
%%score [ ( 1 2 ) ( 3 4 ) ]
L:1/8
Q:1/4=84
M:4/4
K:Eb
V:1 treble nm="Midi_74"
V:2 treble 
V:3 bass nm="Midi_74"
V:4 bass 
V:1
"^Magdala (888. 4)""^Francis Pott\n(1832-1909)""^The strife is o'er, the battle done""^Joseph Barnby\n(1838-96)" G>G | %1
w: Al- le-|
 A4 G2 B>B | c4 B2 B->e | (e4 d4) | e6 |: B2 | c2 B2 G2 AG | F2 F2 E2 ||[M:4/4] G2 | =A2 B2 e2 d2 | %10
w: lu- ia, Al- le-|lu- ia, Al- le-|lu\- *|ia.|The|strife is o'er, the *|bat- tle done;|Now|is the Vic- tor's|
 c2 c2 B2 || B2 | e2 B2 G2 A2 | B2 G2 E2 || A>G | F8 | E6 :| E4 E4 |] %18
w: tri- umph won;|O|let the song of|praise be sung.|Al- le-|lu-|ia.|A- men.|
V:2
 E>E | E4 E2 E>E | E4 E2 E>G | F8 | G6 |: E2 | E2 F2 E2 E2 | E2 D2 E2 ||[M:4/4] E2 | F2 F2 F2 F2 | %10
 !courtesy!_ED !courtesy!_E2 D2 || B2- | e2 B2 G2 A2 | B2 D2 E2 || E>E | (E4 D4) | E6 :| C4 B,4 |] %18
V:3
 B,>B, | C4 B,2 G,>G, | A,4 G,2 B,>B, | B,8 | B,6 |: G,2 | A,2 F,2 B,2 A,B, | C2 B,A, G,2 || %8
[M:4/4] B,2 | C2 B,2 C2 B,2 | %10
"^2 Death's mightiest powers have done their worst,\nAnd Jesus hath His foes dispersed;\nLet shouts of praise and joy outburst.\nAlleluia!\n\n3 On the third morn He rose again\nGlorious in majesty to reign;\nOh, let us swell the joyful strain!\nAlleluia!\n\n4 He brake the age-bound chains of hell;\nThe bars from heaven's high portals fell.\nLet hymns of praise His triumph tell.\nAlleluia!\n\n5 Lord, by the stripes which wounded Thee,\nFrom death's dread sting Thy servants free,\nThat we may live, and sing to Thee.\nAlleluia!" B,2 =A,2 B,2 || %11
 B,2 | E2 B,2 G,2 A,2 | B,2 B,2 G,2 || C>B, | (A,2 G,2 A,4-) | G,6 :| A,4 [E,G,]4 |] %18
V:4
 E,>E, | A,,4 E,2 E,>E, | A,,4 E,2 G,>E, | (B,4 B,,4) | E,6 |: E,2 | C,2 D,2 E,2 C,B,, | %7
 A,,2 B,,2 E,2 ||[M:4/4] E,2 | E,2 D,2 =A,,2 B,,2 | F,2 F,2 B,,2 || B,2 | E2 B,2 G,2 A,2 | %13
 B,2 G,,2 C,2 || A,,>A,, | B,,8 | E,6 :| A,,4 E,,4 |] %18

